X:1
T:The King and the Tinker
M:3/4
L:1/8
K:F
 A3/2- G/2| E2 D2 D3/2- C/2| D2 D2C-D| E2G-FE-D| C4A-G| E2 D2D-C| D2 D3 D|\
 E2 G2A-=B| c4A-G| G2 A2 c2| d4 cd| e2 d2A-B| c4 c-d/2-e/2| d2 c2A-G|\
 E2 D2C-D| E2 D2 D3/2- E/2| D4||
